img/mold.svg

<svg width="48" height="48" viewBox="0 0 48 48" fill="none" xmlns="http://www.w3.org/2000/svg">
<g clip-path="url(#clip0)">
<path d="M33.295 48C44.314 48 50.602 35.375 46.967 22.253C43.333 9.13096 33.966 17.326 26.667 5.22596C18.654 -8.06404 1.387 6.33896 0 22.253C0.53 30.835 7.93 48 33.295 48Z" fill="#E6F1F9"/>
<path d="M12.75 35.2502V25.1622C13.853 24.5752 16.21 23.6592 18.91 23.6592C20.626 23.6592 22.06 24.6672 23.793 25.8842L23.796 25.8862C25.452 27.0502 27.366 28.3862 29.818 28.3862C32.243 28.3862 34.064 27.5222 35.25 26.5962V35.2502H12.75Z" stroke="#036FC7" stroke-width="1.5"/>
<path d="M17 15C17 14.7348 17.1054 14.4804 17.2929 14.2929C17.4804 14.1054 17.7348 14 18 14C18.2652 14 18.5196 14.1054 18.7071 14.2929C18.8946 14.4804 19 14.7348 19 15V23.16L17 24V15ZM23 13C23 12.7348 23.1054 12.4804 23.2929 12.2929C23.4804 12.1054 23.7348 12 24 12C24.2652 12 24.5196 12.1054 24.7071 12.2929C24.8946 12.4804 25 12.7348 25 13V26L23 25.006V13ZM29 15C29 14.7348 29.1054 14.4804 29.2929 14.2929C29.4804 14.1054 29.7348 14 30 14C30.2652 14 30.5196 14.1054 30.7071 14.2929C30.8946 14.4804 31 14.7348 31 15V28H29V15Z" fill="#036FC7"/>
<path d="M13 17C13 16.7348 13.1054 16.4804 13.2929 16.2929C13.4804 16.1054 13.7348 16 14 16H34C34.2652 16 34.5196 16.1054 34.7071 16.2929C34.8946 16.4804 35 16.7348 35 17C35 17.2652 34.8946 17.5196 34.7071 17.7071C34.5196 17.8946 34.2652 18 34 18H14C13.7348 18 13.4804 17.8946 13.2929 17.7071C13.1054 17.5196 13 17.2652 13 17ZM13 21C13 20.7348 13.1054 20.4804 13.2929 20.2929C13.4804 20.1054 13.7348 20 14 20H34C34.2652 20 34.5196 20.1054 34.7071 20.2929C34.8946 20.4804 35 20.7348 35 21C35 21.2652 34.8946 21.5196 34.7071 21.7071C34.5196 21.8946 34.2652 22 34 22H14C13.7348 22 13.4804 21.8946 13.2929 21.7071C13.1054 21.5196 13 21.2652 13 21ZM15 27H17V29H15V27ZM16 31H18V33H16V31ZM21 29H23V31H21V29ZM27 31H29V33H27V31ZM31 30H33V32H31V30Z" fill="#036FC7"/>
</g>
<defs>
<clipPath id="clip0">
<rect width="48" height="48" fill="white"/>
</clipPath>
</defs>
</svg>

<svg width="48" height="48" fill="none" xmlns="http://www.w3.org/2000/svg"><g clip-path="url(#clip0)"><path d="M33.295 48c11.019 0 17.307-12.625 13.672-25.747-3.634-13.122-13.001-4.927-20.3-17.027C18.654-8.064 1.387 6.339 0 22.253.53 30.835 7.93 48 33.295 48z" fill="#E6F1F9"/><path d="M12.75 35.25V25.162c1.103-.587 3.46-1.503 6.16-1.503 1.716 0 3.15 1.008 4.883 2.225l.003.002c1.656 1.164 3.57 2.5 6.022 2.5 2.425 0 4.246-.864 5.432-1.79v8.654h-22.5z" stroke="#036FC7" stroke-width="1.5"/><path d="M17 15a1 1 0 012 0v8.16L17 24v-9zm6-2a1 1 0 012 0v13l-2-.994V13zm6 2a1 1 0 012 0v13h-2V15z" fill="#036FC7"/><path d="M13 17a1 1 0 011-1h20a1 1 0 010 2H14a1 1 0 01-1-1zm0 4a1 1 0 011-1h20a1 1 0 010 2H14a1 1 0 01-1-1zm2 6h2v2h-2v-2zm1 4h2v2h-2v-2zm5-2h2v2h-2v-2zm6 2h2v2h-2v-2zm4-1h2v2h-2v-2z" fill="#036FC7"/></g><defs><clipPath id="clip0"><path fill="#fff" d="M0 0h48v48H0z"/></clipPath></defs></svg>
